svgs/1F469-1F3FF-200D-1F9B2.svg

<svg xmlns="http://www.w3.org/2000/svg" xmlns:xlink="http://www.w3.org/1999/xlink" preserveAspectRatio="none" viewBox="0 0 72 72"><defs><path id="a" fill="#563E37" d="M106.9 66.05h-3.6v20.3q4.75 0 7.85-2.4 3.6-2.8 3.6-8.05 0-5.3-3.9-8.1l-3.95-1.75z"/><path id="b" fill="#563E37" d="M24.7 66.05h-3.65l-3.9 1.75q-3.95 2.8-3.95 8.1 0 5.25 3.6 8.05 3.1 2.4 7.9 2.4v-20.3z"/><path id="c" fill="#8E726A" d="M57.85 43.35q.998-16.133-3.2-24.5Q49.541 8.728 36.4 8.5q-13.326-.228-18.8 10.1-4.445 8.65-3.45 25.15.799 12.696 8.8 19.3 6.117 5.152 13.35 5 7.133-.158 13.1-5.5 7.688-6.791 8.45-19.2z"/><path id="d" fill="#444" d="M40.15 72.35q-1.7 2-1.7 4.85 0 2.9 1.7 4.9 1.65 2 4.05 2 2.35 0 4.05-2 1.65-2.05 1.65-4.9 0-2.85-1.65-4.85-1.7-2.05-4.05-2.05-2.4 0-4.05 2.05z"/><path id="e" fill="#444" d="M87.85 72.35q-1.7-2.05-4.05-2.05-2.4 0-4.05 2.05-1.7 2-1.7 4.85 0 2.85 1.7 4.9 1.65 2 4.05 2 2.35 0 4.05-2 1.65-2 1.65-4.9 0-2.85-1.65-4.85z"/><path id="f" fill="#513F35" d="M63.95 108.75q4.9 0 9-2.15 3.2-1.7 4.5-3.7.7-1.05.35-1.7-.35-.65-1.45-.65H51.6q-1.1 0-1.45.65-.35.65.35 1.7 1.3 2 4.5 3.7 4.1 2.15 8.95 2.15z"/><path id="g" fill="#563E37" d="M58 90q-.65-.15-.9.3-.3.4-.05.9.7 1.15 2.4 2.2 2.2 1.35 4.55 1.35 2.35 0 4.5-1.35 1.7-1.05 2.4-2.2.25-.5 0-.9-.3-.45-.95-.3-3.15.9-5.95.9-2.85 0-6-.9z"/></defs><use transform="matrix(.56242 0 0 .56242 -.85 .2)" xlink:href="#a"/><use transform="matrix(.56242 0 0 .56242 1.15 .2)" xlink:href="#b"/><use xlink:href="#c"/><use transform="matrix(.56245 0 0 .56245 0 -.25)" xlink:href="#d"/><use transform="matrix(.56245 0 0 .56245 0 -.25)" xlink:href="#e"/><use transform="matrix(.56245 0 0 .56245 0 -.25)" xlink:href="#f"/><use transform="matrix(.56245 0 0 .56245 0 -.25)" xlink:href="#g"/></svg>

<svg xmlns="http://www.w3.org/2000/svg" version="1.1" xmlns:xlink="http://www.w3.org/1999/xlink" preserveAspectRatio="none" x="0px" y="0px" width="72px" height="72px" viewBox="0 0 72 72">
<defs>
<g id="Layer0_0_MEMBER_0_FILL">
<path fill="#563E37" stroke="none" d="
M 106.9 66.05
L 103.3 66.05 103.3 86.35
Q 108.05 86.35 111.15 83.95 114.75 81.15 114.75 75.9 114.75 70.6 110.85 67.8
L 106.9 66.05 Z"/>
</g>

<g id="Layer0_0_MEMBER_1_FILL">
<path fill="#563E37" stroke="none" d="
M 24.7 66.05
L 21.05 66.05 17.15 67.8
Q 13.2 70.6 13.2 75.9 13.2 81.15 16.8 83.95 19.9 86.35 24.7 86.35
L 24.7 66.05 Z"/>
</g>

<g id="Layer0_1_MEMBER_0_FILL">
<path fill="#8E726A" stroke="none" d="
M 57.85 43.35
Q 58.84765625 27.2166015625 54.65 18.85 49.54140625 8.727734375 36.4 8.5 23.07421875 8.2716796875 17.6 18.6 13.155078125 27.2501953125 14.15 43.75 14.948828125 56.44609375 22.95 63.05 29.0669921875 68.20234375 36.3 68.05 43.4328125 67.8921875 49.4 62.55 57.0876953125 55.758984375 57.85 43.35 Z"/>
</g>

<g id="Layer0_1_MEMBER_1_MEMBER_0_FILL">
<path fill="#444444" stroke="none" d="
M 40.15 72.35
Q 38.45 74.35 38.45 77.2 38.45 80.1 40.15 82.1 41.8 84.1 44.2 84.1 46.55 84.1 48.25 82.1 49.9 80.05 49.9 77.2 49.9 74.35 48.25 72.35 46.55 70.3 44.2 70.3 41.8 70.3 40.15 72.35 Z"/>
</g>

<g id="Layer0_1_MEMBER_1_MEMBER_1_FILL">
<path fill="#444444" stroke="none" d="
M 87.85 72.35
Q 86.15 70.3 83.8 70.3 81.4 70.3 79.75 72.35 78.05 74.35 78.05 77.2 78.05 80.05 79.75 82.1 81.4 84.1 83.8 84.1 86.15 84.1 87.85 82.1 89.5 80.1 89.5 77.2 89.5 74.35 87.85 72.35 Z"/>
</g>

<g id="Layer0_1_MEMBER_1_MEMBER_2_FILL">
<path fill="#513F35" stroke="none" d="
M 63.95 108.75
Q 68.85 108.75 72.95 106.6 76.15 104.9 77.45 102.9 78.15 101.85 77.8 101.2 77.45 100.55 76.35 100.55
L 51.6 100.55
Q 50.5 100.55 50.15 101.2 49.8 101.85 50.5 102.9 51.8 104.9 55 106.6 59.1 108.75 63.95 108.75 Z"/>
</g>

<g id="Layer0_1_MEMBER_1_MEMBER_3_FILL">
<path fill="#563E37" stroke="none" d="
M 58 90
Q 57.35 89.85 57.1 90.3 56.8 90.7 57.05 91.2 57.75 92.35 59.45 93.4 61.65 94.75 64 94.75 66.35 94.75 68.5 93.4 70.2 92.35 70.9 91.2 71.15 90.7 70.9 90.3 70.6 89.85 69.95 90 66.8 90.9 64 90.9 61.15 90.9 58 90 Z"/>
</g>
</defs>

<g id="Layer_1">
<g transform="matrix( 0.5624237060546875, 0, 0, 0.5624237060546875, -0.85,0.2) ">
<use xlink:href="#Layer0_0_MEMBER_0_FILL"/>
</g>

<g transform="matrix( 0.5624237060546875, 0, 0, 0.5624237060546875, 1.15,0.2) ">
<use xlink:href="#Layer0_0_MEMBER_1_FILL"/>
</g>

<g transform="matrix( 1, 0, 0, 1, 0,0) ">
<use xlink:href="#Layer0_1_MEMBER_0_FILL"/>
</g>

<g transform="matrix( 0.5624542236328125, 0, 0, 0.5624542236328125, 0,-0.25) ">
<use xlink:href="#Layer0_1_MEMBER_1_MEMBER_0_FILL"/>
</g>

<g transform="matrix( 0.5624542236328125, 0, 0, 0.5624542236328125, 0,-0.25) ">
<use xlink:href="#Layer0_1_MEMBER_1_MEMBER_1_FILL"/>
</g>

<g transform="matrix( 0.5624542236328125, 0, 0, 0.5624542236328125, 0,-0.25) ">
<use xlink:href="#Layer0_1_MEMBER_1_MEMBER_2_FILL"/>
</g>

<g transform="matrix( 0.5624542236328125, 0, 0, 0.5624542236328125, 0,-0.25) ">
<use xlink:href="#Layer0_1_MEMBER_1_MEMBER_3_FILL"/>
</g>
</g>
</svg>
